X:1
T: Johnston's Mill
C:William Macpherson
R:Reel
Q: 232
K:A
M:4/4
L:1/8
|:AA Ac eA cA|BB Bc dc Bc|AA Ac eA cA|Bc BA GE FG|
AA Ac eA cA|dd df af df|ea ec fd Be|c2 A2 A2 ed|
cA Ac cA Ac|dB Bd dB Bd|EE EG Bd BG|Aa gf ed cB|
AA Ac eA cA|DD DF Ad fa|Be ee e=f ^fg|a2 A2 A,4:|
